X:201
T: WAS SIND DIE GASSEN SO ENGE
N: E0107D
O: Europa, Mitteleuropa, Deutschland, Kreis Wetzlar, Burgsolms
R: erzaehlendes Volks - Lied, Sage, Liebe, Leid, Tod
M: 6/8
L: 1/16
K: C
CE | G4G2G2F2D2 | G6E2z2
CE | G4G2G2F2D2 | G6E2z2
C2 | A4A2G2A2B2 | c2B2A2G4
c2 | G2A2G2F2E2D2 | A2G2F2E4

@@@ Tune index: 3851
